resources/assets/img/icons/quote-start.svg

<?xml version="1.0" encoding="UTF-8"?>
<svg width="30px" height="24px" viewBox="0 0 30 24" version="1.1" xmlns="http://www.w3.org/2000/svg" xmlns:xlink="http://www.w3.org/1999/xlink">
    <!-- Generator: Sketch 43.2 (39069) - http://www.bohemiancoding.com/sketch -->
    <title>quote</title>
    <desc>Created with Sketch.</desc>
    <defs></defs>
    <g id="Style-Guide" stroke="none" stroke-width="1" fill="none" fill-rule="evenodd">
        <g transform="translate(-784.000000, -1378.000000)" id="Typographic-Styles" fill="#087acc">
            <g transform="translate(139.000000, 332.000000)">
                <g id="article-info" transform="translate(643.000000, 994.000000)">
                    <g id="quote" transform="translate(2.000000, 52.000000)">
                        <path d="M13.2431641,18.2890625 C13.2431641,19.6640694 12.6899469,20.8671823 11.5834961,21.8984375 C10.4770452,22.9296927 9.17188252,23.4453125 7.66796875,23.4453125 C5.30467568,23.4453125 3.48926415,22.6611407 2.22167969,21.0927734 C0.954095225,19.5244062 0.3203125,17.354506 0.3203125,14.5830078 C0.3203125,12.0048699 1.41063363,9.40528654 3.59130859,6.78417969 C5.77198356,4.16307283 8.39842214,2.17578802 11.4707031,0.822265625 L12.8886719,3.11035156 C10.4609254,4.2919981 8.55957719,5.66698435 7.18457031,7.23535156 C5.80956344,8.80371878 5.01464951,10.705067 4.79980469,12.9394531 L6.60449219,12.9394531 C7.9365301,12.9394531 9.02148019,13.0898422 9.859375,13.390625 C10.6972698,13.6914078 11.3740209,14.1103489 11.8896484,14.6474609 C12.3837915,15.1630885 12.7329091,15.7324188 12.9370117,16.3554688 C13.1411143,16.9785187 13.2431641,17.6230435 13.2431641,18.2890625 Z M29.1308594,18.2890625 C29.1308594,19.6640694 28.5776423,20.8671823 27.4711914,21.8984375 C26.3647406,22.9296927 25.0595778,23.4453125 23.5556641,23.4453125 C21.192371,23.4453125 19.3769595,22.6611407 18.109375,21.0927734 C16.8417905,19.5244062 16.2080078,17.354506 16.2080078,14.5830078 C16.2080078,12.0048699 17.2983289,9.40528654 19.4790039,6.78417969 C21.6596789,4.16307283 24.2861175,2.17578802 27.3583984,0.822265625 L28.7763672,3.11035156 C26.3486207,4.2919981 24.4472725,5.66698435 23.0722656,7.23535156 C21.6972588,8.80371878 20.9023448,10.705067 20.6875,12.9394531 L22.4921875,12.9394531 C23.8242254,12.9394531 24.9091755,13.0898422 25.7470703,13.390625 C26.5849651,13.6914078 27.2617162,14.1103489 27.7773438,14.6474609 C28.2714868,15.1630885 28.6206044,15.7324188 28.824707,16.3554688 C29.0288096,16.9785187 29.1308594,17.6230435 29.1308594,18.2890625 Z" id="“"></path>
                    </g>
                </g>
            </g>
        </g>
    </g>
</svg>

<svg width="30" height="24" viewBox="0 0 30 24" xmlns="http://www.w3.org/2000/svg"><title>quote</title><path d="M13.243 18.29c0 1.374-.553 2.577-1.66 3.608-1.106 1.032-2.411 1.547-3.915 1.547-2.363 0-4.179-.784-5.446-2.352C.954 19.524.32 17.355.32 14.583c0-2.578 1.09-5.178 3.271-7.799 2.181-2.62 4.807-4.608 7.88-5.962l1.418 2.288c-2.428 1.182-4.33 2.557-5.704 4.125-1.375 1.569-2.17 3.47-2.385 5.704h1.804c1.333 0 2.417.15 3.255.452.838.3 1.515.72 2.03 1.256a4.465 4.465 0 0 1 1.048 1.708c.204.624.306 1.268.306 1.934zm15.888 0c0 1.374-.553 2.577-1.66 3.608-1.106 1.032-2.411 1.547-3.915 1.547-2.364 0-4.179-.784-5.447-2.352-1.267-1.569-1.901-3.738-1.901-6.51 0-2.578 1.09-5.178 3.271-7.799 2.18-2.62 4.807-4.608 7.88-5.962l1.417 2.288c-2.427 1.182-4.329 2.557-5.704 4.125-1.375 1.569-2.17 3.47-2.384 5.704h1.804c1.332 0 2.417.15 3.255.452.838.3 1.515.72 2.03 1.256a4.465 4.465 0 0 1 1.048 1.708c.204.624.306 1.268.306 1.934z" fill="#087acc" fill-rule="evenodd"/></svg>
